src/android-favorite-outline.svg

<?xml version="1.0" encoding="utf-8"?>
<!-- Generated by IcoMoon.io -->
<!DOCTYPE svg PUBLIC "-//W3C//DTD SVG 1.1//EN" "http://www.w3.org/Graphics/SVG/1.1/DTD/svg11.dtd">
<svg version="1.1" xmlns="http://www.w3.org/2000/svg" xmlns:xlink="http://www.w3.org/1999/xlink" width="512" height="512" viewBox="0 0 512 512">
<path fill="#000000" d="M349.6 64c-36.4 0-70.718 16.742-93.6 43.947-22.883-27.205-57.2-43.947-93.6-43.947-64.482 0-114.4 50.221-114.4 115.095 0 79.516 70.718 143.348 177.836 241.694l30.164 27.211 30.164-27.211c107.117-98.347 177.836-162.179 177.836-241.694 0-64.874-49.918-115.095-114.4-115.095zM268.836 393.257l-4.219 3.873-8.617 7.773-8.616-7.772-4.214-3.869c-50.418-46.282-93.961-86.254-122.746-121.994-27.957-34.713-40.424-63.14-40.424-92.173 0-22.865 8.422-43.931 23.715-59.316 15.242-15.334 36.083-23.779 58.685-23.779 26.134 0 51.97 12.167 69.11 32.545l24.49 29.116 24.489-29.116c17.141-20.378 42.976-32.545 69.111-32.545 22.603 0 43.443 8.445 58.686 23.778 15.292 15.386 23.714 36.451 23.714 59.317 0 29.033-12.467 57.459-40.422 92.171-28.784 35.74-72.325 75.709-122.742 121.991z"></path>
</svg>

<?xml version="1.0" encoding="utf-8"?>
<!-- Generator: Adobe Illustrator 16.2.1, SVG Export Plug-In . SVG Version: 6.00 Build 0)  -->
<!DOCTYPE svg PUBLIC "-//W3C//DTD SVG 1.1//EN" "http://www.w3.org/Graphics/SVG/1.1/DTD/svg11.dtd">
<svg version="1.1" id="Layer_1" xmlns="http://www.w3.org/2000/svg" xmlns:xlink="http://www.w3.org/1999/xlink" x="0px" y="0px"
	 width="512px" height="512px" viewBox="0 0 512 512" enable-background="new 0 0 512 512" xml:space="preserve">
<path d="M349.6,64c-36.4,0-70.718,16.742-93.6,43.947C233.117,80.742,198.8,64,162.4,64C97.918,64,48,114.221,48,179.095
	c0,79.516,70.718,143.348,177.836,241.694L256,448l30.164-27.211C393.281,322.442,464,258.61,464,179.095
	C464,114.221,414.082,64,349.6,64z M268.836,393.257l-4.219,3.873L256,404.903l-8.616-7.772l-4.214-3.869
	c-50.418-46.282-93.961-86.254-122.746-121.994C92.467,236.555,80,208.128,80,179.095c0-22.865,8.422-43.931,23.715-59.316
	C118.957,104.445,139.798,96,162.4,96c26.134,0,51.97,12.167,69.11,32.545L256,157.661l24.489-29.116
	C297.63,108.167,323.465,96,349.6,96c22.603,0,43.443,8.445,58.686,23.778C423.578,135.164,432,156.229,432,179.095
	c0,29.033-12.467,57.459-40.422,92.171C362.794,307.006,319.253,346.975,268.836,393.257z"/>
</svg>
